style-guide/assets/xd-icons-bullet-list-tiny.svg

<?xml version="1.0" encoding="UTF-8"?>
<svg width="12px" height="12px" viewBox="0 0 12 12" version="1.1" xmlns="http://www.w3.org/2000/svg" xmlns:xlink="http://www.w3.org/1999/xlink">
    <!-- Generator: Sketch 51.3 (57544) - http://www.bohemiancoding.com/sketch -->
    <title>bulleted list</title>
    <desc>Created with Sketch.</desc>
    <defs></defs>
    <g id="bulleted-list" stroke="none" stroke-width="1" fill="none" fill-rule="evenodd">
        <path d="M1.29,9.2775 C1.109,9.4665 1,9.7265 1,9.9875 C1,10.2475 1.109,10.5075 1.29,10.6975 C1.479,10.8775 1.74,10.9875 2,10.9875 C2.26,10.9875 2.519,10.8775 2.71,10.6975 C2.89,10.5075 3,10.2475 3,9.9875 C3,9.7265 2.89,9.4665 2.71,9.2775 C2.33,8.9075 1.66,8.9075 1.29,9.2775 M10,9 L6,9 C5.447,9 5,9.448 5,10 C5,10.552 5.447,11 6,11 L10,11 C10.553,11 11,10.552 11,10 C11,9.448 10.553,9 10,9 M6,3 L10,3 C10.553,3 11,2.552 11,2 C11,1.448 10.553,1 10,1 L6,1 C5.447,1 5,1.448 5,2 C5,2.552 5.447,3 6,3 M10,5 L6,5 C5.447,5 5,5.448 5,6 C5,6.552 5.447,7 6,7 L10,7 C10.553,7 11,6.552 11,6 C11,5.448 10.553,5 10,5 M1.29,1.2775 C1.66,0.9075 2.33,0.9075 2.71,1.2775 C2.89,1.4665 3,1.7265 3,1.9875 C3,2.2475 2.89,2.5075 2.71,2.6975 C2.519,2.8775 2.26,2.9875 2,2.9875 C1.74,2.9875 1.479,2.8775 1.29,2.6975 C1.109,2.5075 1,2.2475 1,1.9875 C1,1.7265 1.109,1.4665 1.29,1.2775 Z M2.55,5.17037281 C2.61,5.20037281 2.66,5.25037281 2.71,5.29037281 C2.89,5.48037281 3,5.73937281 3,6.00037281 C3,6.26037281 2.89,6.52137281 2.71,6.71037281 C2.66,6.75037281 2.61,6.80037281 2.55,6.82937281 C2.5,6.87037281 2.44,6.89937281 2.38,6.92037281 C2.32,6.95037281 2.26,6.97037281 2.19,6.98037281 C2.13,6.98937281 2.06,7.00037281 2,7.00037281 C1.74,7.00037281 1.48,6.89037281 1.29,6.71037281 C1.11,6.52137281 1,6.26037281 1,6.00037281 C1,5.73937281 1.11,5.48037281 1.29,5.29037281 C1.53,5.06037281 1.87,4.95037281 2.19,5.02137281 C2.26,5.03037281 2.32,5.05037281 2.38,5.07937281 C2.44,5.10037281 2.5,5.13037281 2.55,5.17037281 Z" id="Fill-12" fill="#000000"></path>
    </g>
</svg>

<svg viewBox="0 0 12 12" xmlns="http://www.w3.org/2000/svg">
  <path d="M1.29 9.277c-.181.19-.29.45-.29.71 0 .26.109.52.29.71.189.18.45.29.71.29.26 0 .519-.11.71-.29.18-.19.29-.45.29-.71 0-.26-.11-.52-.29-.71-.38-.37-1.05-.37-1.42 0M10 9H6a1 1 0 1 0 0 2h4a1 1 0 1 0 0-2M6 3h4a1 1 0 1 0 0-2H6a1 1 0 1 0 0 2m4 2H6a1 1 0 1 0 0 2h4a1 1 0 1 0 0-2M1.29 1.277c.37-.37 1.04-.37 1.42 0 .18.19.29.45.29.71 0 .26-.11.52-.29.71-.191.18-.45.29-.71.29-.26 0-.521-.11-.71-.29-.181-.19-.29-.45-.29-.71 0-.26.109-.52.29-.71zM2.55 5.17c.06.03.11.08.16.12.18.19.29.45.29.71 0 .26-.11.521-.29.71-.05.04-.1.09-.16.12a.559.559 0 0 1-.17.09c-.06.03-.12.05-.19.06-.06.01-.13.02-.19.02-.26 0-.52-.11-.71-.29A1.05 1.05 0 0 1 1 6c0-.26.11-.52.29-.71.24-.23.58-.34.9-.269a.6.6 0 0 1 .19.058c.06.021.12.051.17.091z" fill="#000" fill-rule="evenodd"/>
</svg>
